X: 198
T: Rothesay Bay
M:3/4
R:waltz
L:1/4
Z:Alf Warnock - alf0@rogers.com
K:D
F G|"D"A3|"A7"A2 A|"D"A d2 -|d D E|\
"D"F3|"A7"F2 E|"D"F A2 -|A F E|
"Bm"D3|"F#m"C2 D|"G"B3|"D"A2 F|\
"F#m7"C2 C|"Em7"F2 E|"A7"E3 -|E F G|
"D"A3|"A7"A2 A|"D"A d2 -|d D E|\
"D"F3|"A7"F2 E|"D"F A2 -|A F D|
"Em"E2 "D7"F|"G"G2 "D7"A|"Em"B2 c|"Ddim"d c B|\
"D"A d2|"A7"F2 E|"D"D3 -|D :|
